assets/law-grey/LawGrey11.svg

<svg xmlns="http://www.w3.org/2000/svg" data-name="Layer 1" viewBox="0 0 64 64"><path d="M49.969 8.176H20.043a6.769 6.769 0 00-6.762 6.762v27.4a6.762 6.762 0 00.748 13.482h24.414a6.771 6.771 0 006.764-6.764V21.7h4.762a6.763 6.763 0 100-13.525zM33.648 53.824H14.029a4.763 4.763 0 010-9.525h19.619a6.75 6.75 0 000 9.525zm9.559-4.764a4.763 4.763 0 11-4.764-4.76 1 1 0 000-2H15.281V14.938a4.767 4.767 0 014.762-4.762h25.131a6.738 6.738 0 00-1.967 4.762zm2-31h3.762v1.64h-3.762zm5.762 1.54v-2.543a1 1 0 00-1-1h-4.762v-1.119a4.763 4.763 0 115.762 4.662z"/><path d="M36.391 18.1H21.756a1 1 0 000 2h14.635a1 1 0 000-2zM36.391 25.236H21.756a1 1 0 000 2h14.635a1 1 0 000-2zM36.391 32.377H21.756a1 1 0 000 2h14.635a1 1 0 000-2z"/></svg>

<svg id="Layer_1" data-name="Layer 1" xmlns="http://www.w3.org/2000/svg" viewBox="0 0 64 64"><title>Artboard 11</title><path d="M49.969,8.176H20.043a6.769,6.769,0,0,0-6.762,6.762v27.4a6.762,6.762,0,0,0,.748,13.482H38.443a6.771,6.771,0,0,0,6.764-6.764V21.7h4.762a6.763,6.763,0,1,0,0-13.525ZM33.648,53.824H14.029a4.763,4.763,0,0,1,0-9.525H33.648a6.75,6.75,0,0,0,0,9.525Zm9.559-4.764A4.763,4.763,0,1,1,38.443,44.3a1,1,0,0,0,0-2H15.281V14.938a4.767,4.767,0,0,1,4.762-4.762H45.174a6.738,6.738,0,0,0-1.967,4.762Zm2-31h3.762V19.7H45.207ZM50.969,19.6V17.057a1,1,0,0,0-1-1H45.207V14.938A4.763,4.763,0,1,1,50.969,19.6Z"/><path d="M36.391,18.1H21.756a1,1,0,0,0,0,2H36.391a1,1,0,0,0,0-2Z"/><path d="M36.391,25.236H21.756a1,1,0,0,0,0,2H36.391a1,1,0,0,0,0-2Z"/><path d="M36.391,32.377H21.756a1,1,0,0,0,0,2H36.391a1,1,0,0,0,0-2Z"/></svg>
